X: 1
T: Blink
R: reel
M: 4/4
L: 1/8
K: Edor
~B3E FEFA|B2ec dBAF|~A3G FDFA|dfed BAFA|
~B3E FEFA|(3Bcd ce dBAF|ABde fedf|edBA BE~E2:|
|:~e3d BABd|(3efg fd edBc|~d3B ADFA|dfed BAFA|
~e3d BABd|egfd edBc|~d3c defe|dBAd BE~E2:|


Tune 1318	Setting 14658

